editions/free/src/assets/ui/recordslot.svg

<svg xmlns="http://www.w3.org/2000/svg" width="75.991" height="66.991" viewBox="0 0 75.991 66.991"><path fill="#48CC7E" d="M40.956 31.325c-5.219 0-9.345-3.287-10.766-8.579l-.234-3.639 1.91 2.675c2.356 2.376 5.5 3.632 9.09 3.632s6.733-1.256 9.09-3.632l1.91-2.675-.234 3.639c-1.421 5.292-5.547 8.579-10.766 8.579z"/><path fill="#FFF" d="M40.956 26.414c-4.055 0-7.373-1.48-9.8-3.928 1.226 4.562 4.698 7.839 9.8 7.839s8.574-3.276 9.8-7.839c-2.427 2.448-5.745 3.928-9.8 3.928z"/><path fill="#48CC7E" d="M40.956 26.043c-4.135 0-7.769-1.461-10.51-4.225l-.187-.188-.069-.256a15.705 15.705 0 0 1-.525-4.086C29.665 10.558 33.569 7 40.956 7s11.291 3.558 11.291 10.289c0 1.417-.177 2.791-.525 4.086l-.069.256-.187.188c-2.741 2.763-6.375 4.224-10.51 4.224z"/><path fill="#FFF" d="M40.956 25.043c4.055 0 7.373-1.481 9.8-3.929a14.7 14.7 0 0 0 .491-3.825c0-6.441-3.85-9.289-10.291-9.289s-10.291 2.848-10.291 9.289a14.7 14.7 0 0 0 .491 3.825c2.427 2.448 5.745 3.929 9.8 3.929z"/><path fill="#48CC7E" d="M37.713 47l-3.077-17.748 1.697.731c1.426.613 2.98.925 4.623.925s3.197-.312 4.623-.925l1.697-.731L44.199 47h-6.486z"/><path fill="#FFF" d="M35.937 30.901L38.555 46h4.803l2.618-15.099c-1.521.655-3.211 1.007-5.02 1.007s-3.498-.351-5.019-1.007z"/><path fill="#48CC7E" d="M38 46h6v7h-6z"/><path fill="#FFF" d="M39 47h4v5h-4z"/><path fill="#48CC7E" d="M36.956 60c-3.007 0-10-1.169-10-12 0-.88.012-1.797.023-2.729.066-5.058.149-11.351-1.975-13.503-.517-.524-1.167-.768-2.048-.768H22v-4h.956c1.966 0 3.613.658 4.896 1.958C31.15 32.3 31.06 39.217 30.98 45.32c-.012.918-.023 1.816-.023 2.68 0 7.091 3.207 8 6 8 .949 0 1.639-.185 1.895-.507.137-.227.219-1.254.109-2.401l-.043-.441.297-.33.297-.321h3.226l.189.758c.007.03.608 3.236-.92 5.193C40.945 59.311 39.246 60 36.956 60z"/><path fill="#FFF" d="M36.956 59c-3.361 0-9-1.429-9-11 0-.876.012-1.788.023-2.717.072-5.517.177-11.769-2.241-14.218C25.031 30.349 24 30 23 30v-2c2 0 3.074.559 4.162 1.66 3.006 3.045 2.906 9.741 2.828 15.649-.012.92-.029 1.823-.029 2.69 0 6.056 2.287 9 6.998 9 1.311 0 2.211-.298 2.676-.885.604-.76.294-3.351.321-3.115h2c.021.082.463 2.799-.738 4.336C40.356 58.44 38.922 59 36.956 59z"/><path fill="#48CC7E" d="M40.456 10a.5.5 0 1 1 0-1 .5.5 0 0 1 0 1zm.5 1.5a.5.5 0 1 0-1 0 .5.5 0 0 0 1 0zm0 2a.5.5 0 1 0-1 0 .5.5 0 0 0 1 0zm0 2a.5.5 0 1 0-1 0 .5.5 0 0 0 1 0zm0 2a.5.5 0 1 0-1 0 .5.5 0 0 0 1 0zm0 2a.5.5 0 1 0-1 0 .5.5 0 0 0 1 0zm0 2a.5.5 0 1 0-1 0 .5.5 0 0 0 1 0zm0 2a.5.5 0 1 0-1 0 .5.5 0 0 0 1 0zm-2-14a.5.5 0 1 0-1 0 .5.5 0 0 0 1 0zm0 2a.5.5 0 1 0-1 0 .5.5 0 0 0 1 0zm0 2a.5.5 0 1 0-1 0 .5.5 0 0 0 1 0zm0 2a.5.5 0 1 0-1 0 .5.5 0 0 0 1 0zm0 2a.5.5 0 1 0-1 0 .5.5 0 0 0 1 0zm0 2a.5.5 0 1 0-1 0 .5.5 0 0 0 1 0zm0 2a.5.5 0 1 0-1 0 .5.5 0 0 0 1 0zm0 2a.5.5 0 1 0-1 0 .5.5 0 0 0 1 0zm-2-14a.5.5 0 1 0-1 0 .5.5 0 0 0 1 0zm0 2a.5.5 0 1 0-1 0 .5.5 0 0 0 1 0zm0 2a.5.5 0 1 0-1 0 .5.5 0 0 0 1 0zm0 2a.5.5 0 1 0-1 0 .5.5 0 0 0 1 0zm0 2a.5.5 0 1 0-1 0 .5.5 0 0 0 1 0zm0 2a.5.5 0 1 0-1 0 .5.5 0 0 0 1 0zm0 2a.5.5 0 1 0-1 0 .5.5 0 0 0 1 0zm0 2a.5.5 0 1 0-1 0 .5.5 0 0 0 1 0zm-2-14a.5.5 0 1 0-1 0 .5.5 0 0 0 1 0zm0 2a.5.5 0 1 0-1 0 .5.5 0 0 0 1 0zm0 2a.5.5 0 1 0-1 0 .5.5 0 0 0 1 0zm0 2a.5.5 0 1 0-1 0 .5.5 0 0 0 1 0zm0 2a.5.5 0 1 0-1 0 .5.5 0 0 0 1 0zm0 2a.5.5 0 1 0-1 0 .5.5 0 0 0 1 0zm0 2a.5.5 0 1 0-1 0 .5.5 0 0 0 1 0zm0 2a.5.5 0 1 0-1 0 .5.5 0 0 0 1 0zm-2-12a.5.5 0 1 0-1 0 .5.5 0 0 0 1 0zm0 2a.5.5 0 1 0-1 0 .5.5 0 0 0 1 0zm0 2a.5.5 0 1 0-1 0 .5.5 0 0 0 1 0zm0 2a.5.5 0 1 0-1 0 .5.5 0 0 0 1 0zm0 2a.5.5 0 1 0-1 0 .5.5 0 0 0 1 0zm0 2a.5.5 0 1 0-1 0 .5.5 0 0 0 1 0zm10-12a.5.5 0 1 0-1 0 .5.5 0 0 0 1 0zm0 2a.5.5 0 1 0-1 0 .5.5 0 0 0 1 0zm0 2a.5.5 0 1 0-1 0 .5.5 0 0 0 1 0zm0 2a.5.5 0 1 0-1 0 .5.5 0 0 0 1 0zm0 2a.5.5 0 1 0-1 0 .5.5 0 0 0 1 0zm0 2a.5.5 0 1 0-1 0 .5.5 0 0 0 1 0zm0 2a.5.5 0 1 0-1 0 .5.5 0 0 0 1 0zm0 2a.5.5 0 1 0-1 0 .5.5 0 0 0 1 0zm2-14a.5.5 0 1 0-1 0 .5.5 0 0 0 1 0zm0 2a.5.5 0 1 0-1 0 .5.5 0 0 0 1 0zm0 2a.5.5 0 1 0-1 0 .5.5 0 0 0 1 0zm0 2a.5.5 0 1 0-1 0 .5.5 0 0 0 1 0zm0 2a.5.5 0 1 0-1 0 .5.5 0 0 0 1 0zm0 2a.5.5 0 1 0-1 0 .5.5 0 0 0 1 0zm0 2a.5.5 0 1 0-1 0 .5.5 0 0 0 1 0zm0 2a.5.5 0 1 0-1 0 .5.5 0 0 0 1 0zm2-14a.5.5 0 1 0-1 0 .5.5 0 0 0 1 0zm0 2a.5.5 0 1 0-1 0 .5.5 0 0 0 1 0zm0 2a.5.5 0 1 0-1 0 .5.5 0 0 0 1 0zm0 2a.5.5 0 1 0-1 0 .5.5 0 0 0 1 0zm0 2a.5.5 0 1 0-1 0 .5.5 0 0 0 1 0zm0 2a.5.5 0 1 0-1 0 .5.5 0 0 0 1 0zm0 2a.5.5 0 1 0-1 0 .5.5 0 0 0 1 0zm0 2a.5.5 0 1 0-1 0 .5.5 0 0 0 1 0zm2-14a.5.5 0 1 0-1 0 .5.5 0 0 0 1 0zm0 2a.5.5 0 1 0-1 0 .5.5 0 0 0 1 0zm0 2a.5.5 0 1 0-1 0 .5.5 0 0 0 1 0zm0 2a.5.5 0 1 0-1 0 .5.5 0 0 0 1 0zm0 2a.5.5 0 1 0-1 0 .5.5 0 0 0 1 0zm0 2a.5.5 0 1 0-1 0 .5.5 0 0 0 1 0zm0 2a.5.5 0 1 0-1 0 .5.5 0 0 0 1 0zm0 2a.5.5 0 1 0-1 0 .5.5 0 0 0 1 0zm2-10a.5.5 0 1 0-1 0 .5.5 0 0 0 1 0zm0 2a.5.5 0 1 0-1 0 .5.5 0 0 0 1 0zm0 2a.5.5 0 1 0-1 0 .5.5 0 0 0 1 0zm0 2a.5.5 0 1 0-1 0 .5.5 0 0 0 1 0zm0 2a.5.5 0 1 0-1 0 .5.5 0 0 0 1 0z"/><path opacity=".16" fill="none" stroke="#000" stroke-width="2" stroke-miterlimit="3" d="M74.471 33.575v-.1c-.045-7.911.215-13.531-2.547-13.531-2.871 0-2.127 3.027-4.695 3.027-1.332 0-2.307-.396-2.307-3.51 0-.207-.107-9.749-.107-9.749C64.814 5.454 61.438 2 57.275 2H9.728C5.562 2 1.5 5.454 1.5 9.713c0 0 .014 5.812.014 9.332 0 3.507 1.104 2.06 1.755 1.085.587-.873 1.59-1.809 3.515-1.928 1.414-.087 2.16.494 3.006 1.359 1.385 1.42 1.43 3.538 1.495 14.014-.065 10.476-.11 12.597-1.495 14.017-.846.865-1.592 1.445-3.006 1.358-1.925-.122-2.928-1.057-3.515-1.931-.651-.974-1.755-2.419-1.755 1.086 0 3.522-.014 9.332-.014 9.332 0 4.262 4.062 7.714 8.228 7.714h47.548c4.162 0 7.539-3.452 7.539-7.714 0 0 .107-9.54.107-9.747 0-3.112.975-3.513 2.307-3.513 2.568 0 1.824 3.03 4.695 3.03 2.762 0 2.502-5.623 2.547-13.532v-.1z"/><path fill="none" stroke="#FFF" stroke-width="2" stroke-miterlimit="3" stroke-dasharray="3" d="M74.471 33.575v-.1c-.045-7.911.215-13.531-2.547-13.531-2.871 0-2.127 3.027-4.695 3.027-1.332 0-2.307-.396-2.307-3.51 0-.207-.107-9.749-.107-9.749C64.814 5.454 61.438 2 57.275 2H9.728C5.562 2 1.5 5.454 1.5 9.713c0 0 .014 5.812.014 9.332 0 3.507 1.104 2.06 1.755 1.085.587-.873 1.59-1.809 3.515-1.928 1.414-.087 2.16.494 3.006 1.359 1.385 1.42 1.43 3.538 1.495 14.014-.065 10.476-.11 12.597-1.495 14.017-.846.865-1.592 1.445-3.006 1.358-1.925-.122-2.928-1.057-3.515-1.931-.651-.974-1.755-2.419-1.755 1.086 0 3.522-.014 9.332-.014 9.332 0 4.262 4.062 7.714 8.228 7.714h47.548c4.162 0 7.539-3.452 7.539-7.714 0 0 .107-9.54.107-9.747 0-3.112.975-3.513 2.307-3.513 2.568 0 1.824 3.03 4.695 3.03 2.762 0 2.502-5.623 2.547-13.532v-.1z"/></svg>

<?xml version="1.0" encoding="utf-8"?>
<!-- Generator: Adobe Illustrator 15.0.0, SVG Export Plug-In . SVG Version: 6.00 Build 0)  -->
<!DOCTYPE svg PUBLIC "-//W3C//DTD SVG 1.1//EN" "http://www.w3.org/Graphics/SVG/1.1/DTD/svg11.dtd">
<svg version="1.1" id="Layer_1" xmlns="http://www.w3.org/2000/svg" xmlns:xlink="http://www.w3.org/1999/xlink" x="0px" y="0px"
	 width="75.991px" height="66.991px" viewBox="0 0 75.991 66.991" enable-background="new 0 0 75.991 66.991" xml:space="preserve">
<g>
	<g>
		<path fill="#48CC7E" d="M40.956,31.325c-5.219,0-9.345-3.287-10.766-8.579l-0.234-3.639l1.91,2.675
			c2.356,2.376,5.5,3.632,9.09,3.632s6.733-1.256,9.09-3.632l1.91-2.675l-0.234,3.639C50.301,28.038,46.175,31.325,40.956,31.325z"
			/>
		<path fill="#FFFFFF" d="M40.956,26.414c-4.055,0-7.373-1.48-9.8-3.928c1.226,4.562,4.698,7.839,9.8,7.839s8.574-3.276,9.8-7.839
			C48.329,24.934,45.011,26.414,40.956,26.414z"/>
		<path fill="#48CC7E" d="M40.956,26.043c-4.135,0-7.769-1.461-10.51-4.225l-0.187-0.188l-0.069-0.256
			c-0.349-1.295-0.525-2.669-0.525-4.086C29.665,10.558,33.569,7,40.956,7s11.291,3.558,11.291,10.289
			c0,1.417-0.177,2.791-0.525,4.086l-0.069,0.256l-0.187,0.188C48.725,24.582,45.091,26.043,40.956,26.043z"/>
		<path fill="#FFFFFF" d="M40.956,25.043c4.055,0,7.373-1.481,9.8-3.929c0.323-1.198,0.491-2.484,0.491-3.825
			c0-6.441-3.85-9.289-10.291-9.289s-10.291,2.848-10.291,9.289c0,1.341,0.168,2.627,0.491,3.825
			C33.583,23.562,36.901,25.043,40.956,25.043z"/>
	</g>
	<g>
		<path fill="#48CC7E" d="M37.713,47l-3.077-17.748l1.697,0.731c1.426,0.613,2.98,0.925,4.623,0.925s3.197-0.312,4.623-0.925
			l1.697-0.731L44.199,47H37.713z"/>
		<path fill="#FFFFFF" d="M35.937,30.901L38.555,46h4.803l2.618-15.099c-1.521,0.655-3.211,1.007-5.02,1.007
			S37.458,31.557,35.937,30.901z"/>
	</g>
	<rect x="38" y="46" fill="#48CC7E" width="6" height="7"/>
	<rect x="39" y="47" fill="#FFFFFF" width="4" height="5"/>
	<path fill="#48CC7E" d="M36.956,60c-3.007,0-10-1.169-10-12c0-0.88,0.012-1.797,0.023-2.729c0.066-5.058,0.149-11.351-1.975-13.503
		C24.487,31.244,23.837,31,22.956,31H22v-4h0.956c1.966,0,3.613,0.658,4.896,1.958c3.298,3.342,3.208,10.259,3.128,16.362
		c-0.012,0.918-0.023,1.816-0.023,2.68c0,7.091,3.207,8,6,8c0.949,0,1.639-0.185,1.895-0.507c0.137-0.227,0.219-1.254,0.109-2.401
		l-0.043-0.441l0.297-0.33L39.512,52h1.331h0.002h1.893l0.189,0.758c0.007,0.03,0.608,3.236-0.92,5.193
		C40.945,59.311,39.246,60,36.956,60z"/>
	<path fill="#FFFFFF" d="M36.956,59c-3.361,0-9-1.429-9-11c0-0.876,0.012-1.788,0.023-2.717c0.072-5.517,0.177-11.769-2.241-14.218
		C25.031,30.349,24,30,23,30v-2c2,0,3.074,0.559,4.162,1.66c3.006,3.045,2.906,9.741,2.828,15.649
		c-0.012,0.92-0.029,1.823-0.029,2.69c0,6.056,2.287,9,6.998,9c1.311,0,2.211-0.298,2.676-0.885c0.604-0.76,0.294-3.351,0.321-3.115
		h2c0.021,0.082,0.463,2.799-0.738,4.336C40.356,58.44,38.922,59,36.956,59z"/>
	<path fill="#48CC7E" d="M40.456,10c-0.276,0-0.5-0.224-0.5-0.5S40.18,9,40.456,9s0.5,0.224,0.5,0.5S40.732,10,40.456,10z
		 M40.956,11.5c0-0.276-0.224-0.5-0.5-0.5s-0.5,0.224-0.5,0.5s0.224,0.5,0.5,0.5S40.956,11.776,40.956,11.5z M40.956,13.5
		c0-0.276-0.224-0.5-0.5-0.5s-0.5,0.224-0.5,0.5s0.224,0.5,0.5,0.5S40.956,13.776,40.956,13.5z M40.956,15.5
		c0-0.276-0.224-0.5-0.5-0.5s-0.5,0.224-0.5,0.5s0.224,0.5,0.5,0.5S40.956,15.776,40.956,15.5z M40.956,17.5
		c0-0.276-0.224-0.5-0.5-0.5s-0.5,0.224-0.5,0.5s0.224,0.5,0.5,0.5S40.956,17.776,40.956,17.5z M40.956,19.5
		c0-0.276-0.224-0.5-0.5-0.5s-0.5,0.224-0.5,0.5s0.224,0.5,0.5,0.5S40.956,19.776,40.956,19.5z M40.956,21.5
		c0-0.276-0.224-0.5-0.5-0.5s-0.5,0.224-0.5,0.5s0.224,0.5,0.5,0.5S40.956,21.776,40.956,21.5z M40.956,23.5
		c0-0.276-0.224-0.5-0.5-0.5s-0.5,0.224-0.5,0.5s0.224,0.5,0.5,0.5S40.956,23.776,40.956,23.5z M38.956,9.5
		c0-0.276-0.224-0.5-0.5-0.5s-0.5,0.224-0.5,0.5s0.224,0.5,0.5,0.5S38.956,9.776,38.956,9.5z M38.956,11.5
		c0-0.276-0.224-0.5-0.5-0.5s-0.5,0.224-0.5,0.5s0.224,0.5,0.5,0.5S38.956,11.776,38.956,11.5z M38.956,13.5
		c0-0.276-0.224-0.5-0.5-0.5s-0.5,0.224-0.5,0.5s0.224,0.5,0.5,0.5S38.956,13.776,38.956,13.5z M38.956,15.5
		c0-0.276-0.224-0.5-0.5-0.5s-0.5,0.224-0.5,0.5s0.224,0.5,0.5,0.5S38.956,15.776,38.956,15.5z M38.956,17.5
		c0-0.276-0.224-0.5-0.5-0.5s-0.5,0.224-0.5,0.5s0.224,0.5,0.5,0.5S38.956,17.776,38.956,17.5z M38.956,19.5
		c0-0.276-0.224-0.5-0.5-0.5s-0.5,0.224-0.5,0.5s0.224,0.5,0.5,0.5S38.956,19.776,38.956,19.5z M38.956,21.5
		c0-0.276-0.224-0.5-0.5-0.5s-0.5,0.224-0.5,0.5s0.224,0.5,0.5,0.5S38.956,21.776,38.956,21.5z M38.956,23.5
		c0-0.276-0.224-0.5-0.5-0.5s-0.5,0.224-0.5,0.5s0.224,0.5,0.5,0.5S38.956,23.776,38.956,23.5z M36.956,9.5
		c0-0.276-0.224-0.5-0.5-0.5s-0.5,0.224-0.5,0.5s0.224,0.5,0.5,0.5S36.956,9.776,36.956,9.5z M36.956,11.5
		c0-0.276-0.224-0.5-0.5-0.5s-0.5,0.224-0.5,0.5s0.224,0.5,0.5,0.5S36.956,11.776,36.956,11.5z M36.956,13.5
		c0-0.276-0.224-0.5-0.5-0.5s-0.5,0.224-0.5,0.5s0.224,0.5,0.5,0.5S36.956,13.776,36.956,13.5z M36.956,15.5
		c0-0.276-0.224-0.5-0.5-0.5s-0.5,0.224-0.5,0.5s0.224,0.5,0.5,0.5S36.956,15.776,36.956,15.5z M36.956,17.5
		c0-0.276-0.224-0.5-0.5-0.5s-0.5,0.224-0.5,0.5s0.224,0.5,0.5,0.5S36.956,17.776,36.956,17.5z M36.956,19.5
		c0-0.276-0.224-0.5-0.5-0.5s-0.5,0.224-0.5,0.5s0.224,0.5,0.5,0.5S36.956,19.776,36.956,19.5z M36.956,21.5
		c0-0.276-0.224-0.5-0.5-0.5s-0.5,0.224-0.5,0.5s0.224,0.5,0.5,0.5S36.956,21.776,36.956,21.5z M36.956,23.5
		c0-0.276-0.224-0.5-0.5-0.5s-0.5,0.224-0.5,0.5s0.224,0.5,0.5,0.5S36.956,23.776,36.956,23.5z M34.956,9.5
		c0-0.276-0.224-0.5-0.5-0.5s-0.5,0.224-0.5,0.5s0.224,0.5,0.5,0.5S34.956,9.776,34.956,9.5z M34.956,11.5
		c0-0.276-0.224-0.5-0.5-0.5s-0.5,0.224-0.5,0.5s0.224,0.5,0.5,0.5S34.956,11.776,34.956,11.5z M34.956,13.5
		c0-0.276-0.224-0.5-0.5-0.5s-0.5,0.224-0.5,0.5s0.224,0.5,0.5,0.5S34.956,13.776,34.956,13.5z M34.956,15.5
		c0-0.276-0.224-0.5-0.5-0.5s-0.5,0.224-0.5,0.5s0.224,0.5,0.5,0.5S34.956,15.776,34.956,15.5z M34.956,17.5
		c0-0.276-0.224-0.5-0.5-0.5s-0.5,0.224-0.5,0.5s0.224,0.5,0.5,0.5S34.956,17.776,34.956,17.5z M34.956,19.5
		c0-0.276-0.224-0.5-0.5-0.5s-0.5,0.224-0.5,0.5s0.224,0.5,0.5,0.5S34.956,19.776,34.956,19.5z M34.956,21.5
		c0-0.276-0.224-0.5-0.5-0.5s-0.5,0.224-0.5,0.5s0.224,0.5,0.5,0.5S34.956,21.776,34.956,21.5z M34.956,23.5
		c0-0.276-0.224-0.5-0.5-0.5s-0.5,0.224-0.5,0.5s0.224,0.5,0.5,0.5S34.956,23.776,34.956,23.5z M32.956,11.5
		c0-0.276-0.224-0.5-0.5-0.5s-0.5,0.224-0.5,0.5s0.224,0.5,0.5,0.5S32.956,11.776,32.956,11.5z M32.956,13.5
		c0-0.276-0.224-0.5-0.5-0.5s-0.5,0.224-0.5,0.5s0.224,0.5,0.5,0.5S32.956,13.776,32.956,13.5z M32.956,15.5
		c0-0.276-0.224-0.5-0.5-0.5s-0.5,0.224-0.5,0.5s0.224,0.5,0.5,0.5S32.956,15.776,32.956,15.5z M32.956,17.5
		c0-0.276-0.224-0.5-0.5-0.5s-0.5,0.224-0.5,0.5s0.224,0.5,0.5,0.5S32.956,17.776,32.956,17.5z M32.956,19.5
		c0-0.276-0.224-0.5-0.5-0.5s-0.5,0.224-0.5,0.5s0.224,0.5,0.5,0.5S32.956,19.776,32.956,19.5z M32.956,21.5
		c0-0.276-0.224-0.5-0.5-0.5s-0.5,0.224-0.5,0.5s0.224,0.5,0.5,0.5S32.956,21.776,32.956,21.5z M42.956,9.5
		c0-0.276-0.224-0.5-0.5-0.5s-0.5,0.224-0.5,0.5s0.224,0.5,0.5,0.5S42.956,9.776,42.956,9.5z M42.956,11.5
		c0-0.276-0.224-0.5-0.5-0.5s-0.5,0.224-0.5,0.5s0.224,0.5,0.5,0.5S42.956,11.776,42.956,11.5z M42.956,13.5
		c0-0.276-0.224-0.5-0.5-0.5s-0.5,0.224-0.5,0.5s0.224,0.5,0.5,0.5S42.956,13.776,42.956,13.5z M42.956,15.5
		c0-0.276-0.224-0.5-0.5-0.5s-0.5,0.224-0.5,0.5s0.224,0.5,0.5,0.5S42.956,15.776,42.956,15.5z M42.956,17.5
		c0-0.276-0.224-0.5-0.5-0.5s-0.5,0.224-0.5,0.5s0.224,0.5,0.5,0.5S42.956,17.776,42.956,17.5z M42.956,19.5
		c0-0.276-0.224-0.5-0.5-0.5s-0.5,0.224-0.5,0.5s0.224,0.5,0.5,0.5S42.956,19.776,42.956,19.5z M42.956,21.5
		c0-0.276-0.224-0.5-0.5-0.5s-0.5,0.224-0.5,0.5s0.224,0.5,0.5,0.5S42.956,21.776,42.956,21.5z M42.956,23.5
		c0-0.276-0.224-0.5-0.5-0.5s-0.5,0.224-0.5,0.5s0.224,0.5,0.5,0.5S42.956,23.776,42.956,23.5z M44.956,9.5
		c0-0.276-0.224-0.5-0.5-0.5s-0.5,0.224-0.5,0.5s0.224,0.5,0.5,0.5S44.956,9.776,44.956,9.5z M44.956,11.5
		c0-0.276-0.224-0.5-0.5-0.5s-0.5,0.224-0.5,0.5s0.224,0.5,0.5,0.5S44.956,11.776,44.956,11.5z M44.956,13.5
		c0-0.276-0.224-0.5-0.5-0.5s-0.5,0.224-0.5,0.5s0.224,0.5,0.5,0.5S44.956,13.776,44.956,13.5z M44.956,15.5
		c0-0.276-0.224-0.5-0.5-0.5s-0.5,0.224-0.5,0.5s0.224,0.5,0.5,0.5S44.956,15.776,44.956,15.5z M44.956,17.5
		c0-0.276-0.224-0.5-0.5-0.5s-0.5,0.224-0.5,0.5s0.224,0.5,0.5,0.5S44.956,17.776,44.956,17.5z M44.956,19.5
		c0-0.276-0.224-0.5-0.5-0.5s-0.5,0.224-0.5,0.5s0.224,0.5,0.5,0.5S44.956,19.776,44.956,19.5z M44.956,21.5
		c0-0.276-0.224-0.5-0.5-0.5s-0.5,0.224-0.5,0.5s0.224,0.5,0.5,0.5S44.956,21.776,44.956,21.5z M44.956,23.5
		c0-0.276-0.224-0.5-0.5-0.5s-0.5,0.224-0.5,0.5s0.224,0.5,0.5,0.5S44.956,23.776,44.956,23.5z M46.956,9.5
		c0-0.276-0.224-0.5-0.5-0.5s-0.5,0.224-0.5,0.5s0.224,0.5,0.5,0.5S46.956,9.776,46.956,9.5z M46.956,11.5
		c0-0.276-0.224-0.5-0.5-0.5s-0.5,0.224-0.5,0.5s0.224,0.5,0.5,0.5S46.956,11.776,46.956,11.5z M46.956,13.5
		c0-0.276-0.224-0.5-0.5-0.5s-0.5,0.224-0.5,0.5s0.224,0.5,0.5,0.5S46.956,13.776,46.956,13.5z M46.956,15.5
		c0-0.276-0.224-0.5-0.5-0.5s-0.5,0.224-0.5,0.5s0.224,0.5,0.5,0.5S46.956,15.776,46.956,15.5z M46.956,17.5
		c0-0.276-0.224-0.5-0.5-0.5s-0.5,0.224-0.5,0.5s0.224,0.5,0.5,0.5S46.956,17.776,46.956,17.5z M46.956,19.5
		c0-0.276-0.224-0.5-0.5-0.5s-0.5,0.224-0.5,0.5s0.224,0.5,0.5,0.5S46.956,19.776,46.956,19.5z M46.956,21.5
		c0-0.276-0.224-0.5-0.5-0.5s-0.5,0.224-0.5,0.5s0.224,0.5,0.5,0.5S46.956,21.776,46.956,21.5z M46.956,23.5
		c0-0.276-0.224-0.5-0.5-0.5s-0.5,0.224-0.5,0.5s0.224,0.5,0.5,0.5S46.956,23.776,46.956,23.5z M48.956,9.5
		c0-0.276-0.224-0.5-0.5-0.5s-0.5,0.224-0.5,0.5s0.224,0.5,0.5,0.5S48.956,9.776,48.956,9.5z M48.956,11.5
		c0-0.276-0.224-0.5-0.5-0.5s-0.5,0.224-0.5,0.5s0.224,0.5,0.5,0.5S48.956,11.776,48.956,11.5z M48.956,13.5
		c0-0.276-0.224-0.5-0.5-0.5s-0.5,0.224-0.5,0.5s0.224,0.5,0.5,0.5S48.956,13.776,48.956,13.5z M48.956,15.5
		c0-0.276-0.224-0.5-0.5-0.5s-0.5,0.224-0.5,0.5s0.224,0.5,0.5,0.5S48.956,15.776,48.956,15.5z M48.956,17.5
		c0-0.276-0.224-0.5-0.5-0.5s-0.5,0.224-0.5,0.5s0.224,0.5,0.5,0.5S48.956,17.776,48.956,17.5z M48.956,19.5
		c0-0.276-0.224-0.5-0.5-0.5s-0.5,0.224-0.5,0.5s0.224,0.5,0.5,0.5S48.956,19.776,48.956,19.5z M48.956,21.5
		c0-0.276-0.224-0.5-0.5-0.5s-0.5,0.224-0.5,0.5s0.224,0.5,0.5,0.5S48.956,21.776,48.956,21.5z M48.956,23.5
		c0-0.276-0.224-0.5-0.5-0.5s-0.5,0.224-0.5,0.5s0.224,0.5,0.5,0.5S48.956,23.776,48.956,23.5z M50.956,13.5
		c0-0.276-0.224-0.5-0.5-0.5s-0.5,0.224-0.5,0.5s0.224,0.5,0.5,0.5S50.956,13.776,50.956,13.5z M50.956,15.5
		c0-0.276-0.224-0.5-0.5-0.5s-0.5,0.224-0.5,0.5s0.224,0.5,0.5,0.5S50.956,15.776,50.956,15.5z M50.956,17.5
		c0-0.276-0.224-0.5-0.5-0.5s-0.5,0.224-0.5,0.5s0.224,0.5,0.5,0.5S50.956,17.776,50.956,17.5z M50.956,19.5
		c0-0.276-0.224-0.5-0.5-0.5s-0.5,0.224-0.5,0.5s0.224,0.5,0.5,0.5S50.956,19.776,50.956,19.5z M50.956,21.5
		c0-0.276-0.224-0.5-0.5-0.5s-0.5,0.224-0.5,0.5s0.224,0.5,0.5,0.5S50.956,21.776,50.956,21.5z"/>
</g>
<path opacity="0.16" fill="none" stroke="#000000" stroke-width="2" stroke-miterlimit="3" d="M74.471,33.575c0-0.033,0-0.064,0-0.1
	l0,0c-0.045-7.911,0.215-13.531-2.547-13.531c-2.871,0-2.127,3.027-4.695,3.027c-1.332,0-2.307-0.396-2.307-3.51
	c0-0.207-0.107-9.749-0.107-9.749C64.814,5.454,61.438,2,57.275,2H28.02H9.834H9.728C5.562,2,1.5,5.454,1.5,9.713
	c0,0,0.014,5.812,0.014,9.332c0,3.507,1.104,2.06,1.755,1.085c0.587-0.873,1.59-1.809,3.515-1.928
	c1.414-0.087,2.16,0.494,3.006,1.359c1.385,1.42,1.43,3.538,1.495,14.014c-0.065,10.476-0.11,12.597-1.495,14.017
	c-0.846,0.865-1.592,1.445-3.006,1.358c-1.925-0.122-2.928-1.057-3.515-1.931c-0.651-0.974-1.755-2.419-1.755,1.086
	c0,3.522-0.014,9.332-0.014,9.332c0,4.262,4.062,7.714,8.228,7.714h0.106H28.02h29.256c4.162,0,7.539-3.452,7.539-7.714
	c0,0,0.107-9.54,0.107-9.747c0-3.112,0.975-3.513,2.307-3.513c2.568,0,1.824,3.03,4.695,3.03c2.762,0,2.502-5.623,2.547-13.532l0,0
	C74.471,33.64,74.471,33.608,74.471,33.575z"/>
<path fill="none" stroke="#FFFFFF" stroke-width="2" stroke-miterlimit="3" stroke-dasharray="3" d="M74.471,33.575
	c0-0.033,0-0.064,0-0.1l0,0c-0.045-7.911,0.215-13.531-2.547-13.531c-2.871,0-2.127,3.027-4.695,3.027
	c-1.332,0-2.307-0.396-2.307-3.51c0-0.207-0.107-9.749-0.107-9.749C64.814,5.454,61.438,2,57.275,2H28.02H9.834H9.728
	C5.562,2,1.5,5.454,1.5,9.713c0,0,0.014,5.812,0.014,9.332c0,3.507,1.104,2.06,1.755,1.085c0.587-0.873,1.59-1.809,3.515-1.928
	c1.414-0.087,2.16,0.494,3.006,1.359c1.385,1.42,1.43,3.538,1.495,14.014c-0.065,10.476-0.11,12.597-1.495,14.017
	c-0.846,0.865-1.592,1.445-3.006,1.358c-1.925-0.122-2.928-1.057-3.515-1.931c-0.651-0.974-1.755-2.419-1.755,1.086
	c0,3.522-0.014,9.332-0.014,9.332c0,4.262,4.062,7.714,8.228,7.714h0.106H28.02h29.256c4.162,0,7.539-3.452,7.539-7.714
	c0,0,0.107-9.54,0.107-9.747c0-3.112,0.975-3.513,2.307-3.513c2.568,0,1.824,3.03,4.695,3.03c2.762,0,2.502-5.623,2.547-13.532l0,0
	C74.471,33.64,74.471,33.608,74.471,33.575z"/>
</svg>
